svg/fluentui-system-icons/ic_fluent_shield_person_add_20_filled.svg

<svg width="20" height="20" viewBox="0 0 20 20" fill="none" xmlns="http://www.w3.org/2000/svg">
<path d="M10.2774 2.08397C10.1094 1.97201 9.8906 1.97201 9.72265 2.08397C7.78446 3.3761 5.68833 4.1823 3.42929 4.50503C3.18296 4.54021 3 4.75117 3 5V9.5C3 13.3913 5.30699 16.2307 9.82051 17.9667C9.93605 18.0111 10.064 18.0111 10.1795 17.9667L10.2179 17.9519C9.45611 17.0081 9 15.8073 9 14.5C9 14.4745 9.00017 14.4491 9.00052 14.4237C7.22963 14.135 6.5 13.0672 6.5 11.9995C6.5 11.1711 7.17157 10.4995 8 10.4995H10.7256C11.7105 9.56988 13.0387 9 14.5 9C15.4 9 16.2496 9.21618 16.9995 9.59945C16.9998 9.56638 17 9.53323 17 9.5V5C17 4.75117 16.817 4.54021 16.5707 4.50503C14.3117 4.1823 12.2155 3.3761 10.2774 2.08397ZM10 9.49951C8.89543 9.49951 8 8.60408 8 7.49951C8 6.39494 8.89543 5.49951 10 5.49951C11.1046 5.49951 12 6.39494 12 7.49951C12 8.60408 11.1046 9.49951 10 9.49951ZM19 14.5C19 16.9853 16.9853 19 14.5 19C12.0147 19 10 16.9853 10 14.5C10 12.0147 12.0147 10 14.5 10C16.9853 10 19 12.0147 19 14.5ZM15 12.5C15 12.2239 14.7761 12 14.5 12C14.2239 12 14 12.2239 14 12.5V14H12.5C12.2239 14 12 14.2239 12 14.5C12 14.7761 12.2239 15 12.5 15H14V16.5C14 16.7761 14.2239 17 14.5 17C14.7761 17 15 16.7761 15 16.5V15H16.5C16.7761 15 17 14.7761 17 14.5C17 14.2239 16.7761 14 16.5 14H15V12.5Z" fill="#212121"/>
</svg>

<svg xmlns="http://www.w3.org/2000/svg" width="20" height="20"><path d="M10.277 2.084a.5.5 0 0 0-.554 0 15.05 15.05 0 0 1-6.294 2.421A.5.5 0 0 0 3 5v4.5c0 3.891 2.307 6.73 6.82 8.467a.5.5 0 0 0 .36 0l.038-.015A5.477 5.477 0 0 1 9 14.424c-1.77-.289-2.5-1.357-2.5-2.425A1.5 1.5 0 0 1 8 10.5h2.726A5.48 5.48 0 0 1 14.5 9c.9 0 1.75.216 2.5.6V5a.5.5 0 0 0-.43-.495 15.05 15.05 0 0 1-6.293-2.421ZM10 9.5a2 2 0 1 1 0-4 2 2 0 0 1 0 4Zm9 5a4.5 4.5 0 1 1-9 0 4.5 4.5 0 0 1 9 0Zm-4-2a.5.5 0 0 0-1 0V14h-1.5a.5.5 0 0 0 0 1H14v1.5a.5.5 0 0 0 1 0V15h1.5a.5.5 0 0 0 0-1H15v-1.5Z"/></svg>
